flaticon/grooming/sponge.svg

<svg xmlns="http://www.w3.org/2000/svg" width="32" height="32" viewBox="0 0 24 24">
    <path d="M 18.6875 1.292969 C 18.628906 1.25 18.558594 1.230469 18.492188 1.226562 C 18.257812 1.011719 18 0.820312 17.722656 0.652344 C 17.042969 0.25 16.398438 0.0507812 15.757812 0.0117188 C 12.46875 -0.109375 10.183594 0.773438 9.140625 2.578125 L 9.019531 2.738281 C 8.816406 3.101562 8.578125 3.460938 8.335938 3.820312 L 5.449219 8.875 C 4.605469 10.359375 3.804688 11.605469 2.960938 12.648438 C 2.078125 13.769531 1.117188 15.574219 1.4375 17.902344 C 1.714844 19.753906 2.941406 21.222656 4.621094 21.894531 L 5.808594 23.117188 L 5.847656 23.15625 C 6.371094 23.558594 6.972656 23.839844 7.535156 23.917969 C 7.816406 23.960938 8.09375 24 8.375 24 C 9.339844 24 10.34375 23.757812 11.386719 23.199219 C 12.988281 22.394531 14.3125 21.03125 15.234375 19.347656 L 17 16.058594 C 17.242188 15.574219 17.644531 15.175781 18.125 14.8125 C 20.613281 13.046875 22.257812 8.554688 22.335938 8.316406 C 23.859375 4.421875 18.886719 1.414062 18.6875 1.292969 Z M 2.199219 17.78125 C 1.917969 15.734375 2.800781 14.132812 3.5625 13.128906 C 4.445312 12.046875 5.289062 10.800781 6.128906 9.277344 L 9.019531 4.261719 C 9.257812 3.902344 9.5 3.5 9.699219 3.140625 L 9.820312 2.9375 C 10.664062 1.535156 12.507812 0.773438 15.195312 0.773438 C 15.355469 0.773438 15.515625 0.773438 15.71875 0.773438 C 16.199219 0.8125 16.71875 0.972656 17.242188 1.292969 C 17.550781 1.472656 17.832031 1.691406 18.074219 1.9375 C 18.089844 1.964844 18.105469 1.992188 18.125 2.015625 C 18.367188 2.257812 18.566406 2.539062 18.726562 2.820312 L 18.765625 2.898438 C 18.804688 3.019531 18.886719 3.140625 18.925781 3.261719 L 18.929688 3.261719 C 18.996094 3.441406 19.050781 3.628906 19.085938 3.820312 C 19.246094 4.464844 19.289062 5.144531 19.246094 5.746094 C 19.167969 6.832031 18.726562 7.875 17.964844 8.714844 L 13.992188 13.128906 L 11.425781 16.617188 C 10.945312 17.261719 10.382812 18.0625 9.941406 18.90625 C 9.429688 19.882812 8.695312 20.632812 7.890625 21.054688 C 7.464844 21.269531 7.03125 21.390625 6.613281 21.390625 C 6.53125 21.390625 6.449219 21.390625 6.371094 21.390625 C 5.847656 21.351562 5.367188 21.230469 4.886719 21.03125 C 4.8125 21.011719 4.730469 21.011719 4.652344 21.03125 C 3.339844 20.433594 2.402344 19.234375 2.199219 17.78125 Z M 21.613281 7.992188 C 21.574219 8.035156 19.96875 12.488281 17.683594 14.132812 C 17.082031 14.574219 16.640625 15.054688 16.320312 15.65625 L 14.554688 18.945312 C 13.710938 20.511719 12.507812 21.714844 11.023438 22.476562 C 9.859375 23.078125 8.699219 23.277344 7.65625 23.117188 C 7.214844 23.078125 6.773438 22.875 6.332031 22.554688 L 6.027344 22.253906 C 6.101562 22.261719 6.175781 22.269531 6.25 22.273438 C 6.332031 22.273438 6.410156 22.273438 6.492188 22.273438 C 7.703125 22.273438 8.9375 21.613281 9.882812 20.492188 C 10.199219 20.132812 10.472656 19.722656 10.703125 19.265625 C 11.144531 18.464844 11.664062 17.742188 12.105469 17.101562 L 14.675781 13.730469 L 18.605469 9.316406 C 19.488281 8.316406 20.011719 7.109375 20.089844 5.867188 C 20.128906 5.144531 20.089844 4.421875 19.929688 3.703125 C 19.882812 3.488281 19.820312 3.277344 19.746094 3.074219 C 20.984375 4.199219 22.414062 5.996094 21.613281 7.992188 Z M 21.613281 7.992188"/>
    <path d="M13.3125 5.988281C14.191406 5.988281 14.914062 5.265625 14.914062 4.382812 14.914062 3.5 14.191406 2.777344 13.3125 2.777344 12.429688 2.777344 11.707031 3.5 11.707031 4.382812 11.707031 5.265625 12.429688 5.988281 13.3125 5.988281zM13.3125 3.582031C13.753906 3.582031 14.113281 3.941406 14.113281 4.382812 14.113281 4.824219 13.753906 5.1875 13.3125 5.1875 12.871094 5.1875 12.507812 4.824219 12.507812 4.382812 12.507812 3.941406 12.871094 3.582031 13.3125 3.582031zM11.304688 13.207031C12.1875 13.207031 12.910156 12.488281 12.910156 11.605469 12.910156 10.722656 12.1875 10 11.304688 10 10.421875 10 9.699219 10.722656 9.699219 11.605469 9.699219 12.488281 10.421875 13.207031 11.304688 13.207031zM11.304688 10.800781C11.746094 10.800781 12.105469 11.164062 12.105469 11.605469 12.105469 12.046875 11.746094 12.40625 11.304688 12.40625 10.863281 12.40625 10.503906 12.046875 10.503906 11.605469 10.503906 11.164062 10.863281 10.800781 11.304688 10.800781zM4.886719 17.621094C5.769531 17.621094 6.492188 16.898438 6.492188 16.015625 6.492188 15.132812 5.769531 14.414062 4.886719 14.414062 4.003906 14.414062 3.28125 15.132812 3.28125 16.015625 3.28125 16.898438 4.003906 17.621094 4.886719 17.621094zM4.886719 15.214844C5.328125 15.214844 5.6875 15.574219 5.6875 16.015625 5.6875 16.457031 5.328125 16.820312 4.886719 16.820312 4.445312 16.820312 4.085938 16.457031 4.085938 16.015625 4.085938 15.574219 4.445312 15.214844 4.886719 15.214844zM9.699219 7.59375C9.941406 7.59375 10.101562 7.433594 10.101562 7.191406 10.101562 6.992188 9.941406 6.789062 9.699219 6.789062 9.460938 6.789062 9.300781 6.949219 9.300781 7.191406 9.300781 7.433594 9.460938 7.59375 9.699219 7.59375zM8.898438 16.015625C9.140625 16.015625 9.300781 15.855469 9.300781 15.617188 9.300781 15.414062 9.140625 15.214844 8.898438 15.214844 8.65625 15.214844 8.496094 15.375 8.496094 15.617188 8.496094 15.855469 8.65625 16.015625 8.898438 16.015625zM18.925781 10C18.6875 10 18.527344 10.160156 18.527344 10.402344 18.527344 10.640625 18.6875 10.800781 18.925781 10.800781 19.167969 10.800781 19.328125 10.640625 19.328125 10.402344 19.328125 10.199219 19.167969 10 18.925781 10zM14.113281 16.417969C13.871094 16.417969 13.710938 16.578125 13.710938 16.820312 13.710938 17.058594 13.871094 17.21875 14.113281 17.21875 14.355469 17.21875 14.515625 17.058594 14.515625 16.820312 14.515625 16.617188 14.355469 16.417969 14.113281 16.417969zM14.113281 16.417969"/>
</svg>

<svg xmlns="http://www.w3.org/2000/svg" width="32" height="32" viewBox="0 0 24 24">
    <path d="M18.688 1.293a.366.366 0 0 0-.196-.066 4.87 4.87 0 0 0-.77-.575c-.679-.402-1.324-.601-1.964-.64-3.29-.121-5.574.761-6.617 2.566l-.121.16c-.204.364-.442.723-.684 1.082L5.449 8.875c-.844 1.484-1.644 2.73-2.488 3.773-.883 1.122-1.844 2.926-1.523 5.254.277 1.852 1.503 3.32 3.183 3.993l1.188 1.222.039.04c.523.402 1.125.683 1.687.761.281.043.559.082.84.082.965 0 1.969-.242 3.012-.8 1.601-.805 2.925-2.169 3.847-3.852L17 16.058c.242-.484.645-.882 1.125-1.245 2.488-1.766 4.133-6.258 4.21-6.497 1.524-3.894-3.448-6.902-3.648-7.023zM2.198 17.781c-.281-2.047.602-3.648 1.364-4.652.882-1.082 1.726-2.328 2.566-3.852l2.89-5.015c.239-.36.481-.762.68-1.121l.121-.204c.844-1.402 2.688-2.164 5.375-2.164h.524c.48.04 1 .2 1.523.52.309.18.59.398.832.645a.536.536 0 0 0 .051.078c.242.242.441.523.602.804l.039.078c.039.122.12.243.16.364h.004c.066.18.12.367.156.558.16.645.203 1.325.16 1.926a4.941 4.941 0 0 1-1.281 2.969l-3.973 4.414-2.566 3.488c-.48.645-1.043 1.445-1.485 2.29-.511.976-1.246 1.726-2.05 2.148-.426.215-.86.336-1.278.336h-.242a4.721 4.721 0 0 1-1.484-.36.476.476 0 0 0-.235 0c-1.312-.597-2.25-1.797-2.453-3.25zm19.414-9.789c-.039.043-1.644 4.496-3.93 6.14-.601.442-1.042.923-1.363 1.524l-1.765 3.29c-.844 1.566-2.047 2.769-3.532 3.53-1.164.602-2.324.801-3.367.641-.441-.039-.883-.242-1.324-.562l-.305-.301c.075.008.149.016.223.02h.242c1.211 0 2.446-.66 3.39-1.782.317-.36.59-.77.821-1.226.442-.801.961-1.524 1.402-2.164l2.57-3.372 3.93-4.414c.883-1 1.407-2.207 1.485-3.449.039-.722 0-1.445-.16-2.164a4.85 4.85 0 0 0-.184-.629c1.238 1.125 2.668 2.922 1.867 4.918zm0 0"/>
    <path d="M13.313 5.988a1.61 1.61 0 0 0 1.601-1.605 1.61 1.61 0 0 0-1.601-1.606 1.61 1.61 0 0 0-1.606 1.606 1.61 1.61 0 0 0 1.605 1.605zm0-2.406a.802.802 0 1 1-.003 1.604.802.802 0 0 1 .002-1.604zm0 0M11.305 13.207c.883 0 1.605-.719 1.605-1.602A1.61 1.61 0 0 0 11.305 10a1.61 1.61 0 0 0-1.606 1.605c0 .883.723 1.602 1.606 1.602zm0-2.406a.802.802 0 1 1-.8.805c-.001-.442.358-.805.8-.805zm0 0M4.887 17.621a1.61 1.61 0 0 0 1.605-1.605c0-.883-.722-1.602-1.605-1.602s-1.606.719-1.606 1.602a1.61 1.61 0 0 0 1.606 1.605zm0-2.406a.802.802 0 1 1-.002 1.604.802.802 0 0 1 .002-1.604zm0 0M9.7 7.594c.241 0 .402-.16.402-.403 0-.199-.16-.402-.403-.402-.238 0-.398.16-.398.402 0 .243.16.403.398.403zm0 0M8.898 16.016c.243 0 .403-.16.403-.399a.401.401 0 0 0-.403-.402c-.242 0-.402.16-.402.402 0 .238.16.399.402.399zm0 0M18.926 10c-.238 0-.399.16-.399.402 0 .239.16.399.399.399.242 0 .402-.16.402-.399a.401.401 0 0 0-.402-.402zm0 0M14.113 16.418c-.242 0-.402.16-.402.402 0 .239.16.399.402.399.242 0 .403-.16.403-.399a.401.401 0 0 0-.403-.402zm0 0"/>
</svg>
